svg/file_question.svg

<svg xmlns="http://www.w3.org/2000/svg" viewBox="0 0 24 24"><path d="M6 2c-1.11 0-2 .89-2 2v16a2 2 0 0 0 2 2h12a2 2 0 0 0 2-2V8l-6-6zm7 1.5L18.5 9H13zM12 11a3 3 0 0 1 3 3c0 1.88-2.25 2.06-2.25 3.75h-1.5c0-2.44 2.25-2.25 2.25-3.75a1.5 1.5 0 0 0-1.5-1.5 1.5 1.5 0 0 0-1.5 1.5H9a3 3 0 0 1 3-3m-.75 7.5h1.5V20h-1.5z"/></svg>

<?xml version="1.0" encoding="UTF-8"?><!DOCTYPE svg PUBLIC "-//W3C//DTD SVG 1.1//EN" "http://www.w3.org/Graphics/SVG/1.1/DTD/svg11.dtd"><svg xmlns="http://www.w3.org/2000/svg" xmlns:xlink="http://www.w3.org/1999/xlink" version="1.1" id="mdi-file-question" width="24" height="24" viewBox="0 0 24 24"><path d="M6,2C4.89,2 4,2.89 4,4V20A2,2 0 0,0 6,22H18A2,2 0 0,0 20,20V8L14,2H6M13,3.5L18.5,9H13V3.5M12,11A3,3 0 0,1 15,14C15,15.88 12.75,16.06 12.75,17.75H11.25C11.25,15.31 13.5,15.5 13.5,14A1.5,1.5 0 0,0 12,12.5A1.5,1.5 0 0,0 10.5,14H9A3,3 0 0,1 12,11M11.25,18.5H12.75V20H11.25V18.5Z" /></svg>
